public/svg/wasm.svg

<svg width="100" height="101" viewBox="0 0 100 101" fill="none" xmlns="http://www.w3.org/2000/svg">
<path d="M61.4384 0.436035C61.4384 0.612582 61.4384 0.789129 61.4384 0.974968C61.4384 4.01601 60.2303 6.9325 58.08 9.08285C55.9297 11.2332 53.0132 12.4412 49.9721 12.4412C46.9311 12.4412 44.0146 11.2332 41.8643 9.08285C39.7139 6.9325 38.5059 4.01601 38.5059 0.974968C38.5059 0.789129 38.5059 0.612582 38.5059 0.436035H0V100.436H100V0.436035H61.4384ZM47.7235 89.7317L42.8545 65.6377H42.7709L37.5023 89.7317H30.7935L23.1927 54.3294H29.8179L34.3524 78.4234H34.436L39.8997 54.3294H46.0974L51.0035 78.7207H51.0872L56.2628 54.3294H62.7671L54.3208 89.7317H47.7235ZM84.2037 89.7317L81.9457 81.8521H70.0242L68.2866 89.7317H61.6614L70.2286 54.3294H80.682L91.0983 89.7317H84.2037Z" fill="#654FF0"/>
<path d="M74.2148 63.0545L71.325 76.0447H80.3196L77.0024 63.0545H74.2148Z" fill="#654FF0"/>
</svg>

<svg width="100" height="101" viewBox="0 0 100 101" fill="none" xmlns="http://www.w3.org/2000/svg"><path d="M61.438.436v.539a11.466 11.466 0 0 1-22.932 0V.436H0v100h100v-100H61.438zM47.723 89.732l-4.868-24.094h-.084l-5.269 24.094h-6.709l-7.6-35.403h6.625l4.534 24.094h.084L39.9 54.33h6.197l4.907 24.392h.083l5.176-24.392h6.504l-8.446 35.403h-6.597zm36.48 0-2.257-7.88H70.024l-1.737 7.88H61.66l8.568-35.403h10.453l10.416 35.403h-6.894z" fill="#654FF0"/><path d="m74.215 63.054-2.89 12.99h8.995l-3.318-12.99h-2.787z" fill="#654FF0"/></svg>
